X: 11495
Q: "Moderate."
M: 3/4
L: 1/8
K: G
[|\
(GA) (Bc d2) | G2 e4 | d2 (cB) (AG) | A4 D2 |\
(GA) (Bc d2) | G2 g4 | (fe) e4 | d6 |\
(GA) Bc d2 | G2 e4 | d2 (cB) (AG) | A4 D2 |
(GA) (Bc d2) | G2 g4 | (fe) e4 | d6 |\
(dc) (Bc d2) | d6 | (cB) (AB c2) | c6 |\


